ICONS/component-icons/svg/multiselecttree.svg

<?xml version="1.0" encoding="UTF-8"?><svg id="widgets" xmlns="http://www.w3.org/2000/svg" width="24" height="24" viewBox="0 0 24 24"><path id="multiselecttree" d="M20,4h2V20h0l-4,4H2V4h2V22h13.17l2.83-2.83V4ZM0,0V2H22l2-2H0ZM10,6v1h7l1-1H10Zm3,4v1h4l1-1h-5Zm3,4v1h1l1-1h-2Zm2,4h-5v1h4l1-1ZM6,8h3v-3h-3v3Zm3,4h3v-3h-3v3Zm6,1h-3v3h3v-3Zm-6,7h3v-3h-3v3Z"/></svg>

<?xml version="1.0" encoding="utf-8"?>
<!-- Generator: Adobe Illustrator 24.2.3, SVG Export Plug-In . SVG Version: 6.00 Build 0)  -->
<svg version="1.1" id="Layer_1" xmlns="http://www.w3.org/2000/svg" xmlns:xlink="http://www.w3.org/1999/xlink" x="0px" y="0px"
	 width="24px" height="24px" viewBox="0 0 24 24" enable-background="new 0 0 24 24" xml:space="preserve">
<path d="M13,10v1h4l1-1H13z M15,13h-3v3h3V13z M16,14v1h1l1-1H16z M20,19.2L17.2,22H4V4H2v20h16l4-4l0,0V4h-2V19.2z M18,18h-5v1h4
	L18,18z M9,12h3V9H9V12z M0,0v2h22l2-2H0z M10,6v1h7l1-1H10z M6,8h3V5H6V8z M9,20h3v-3H9V20z"/>
</svg>
